X: 78
T: Waiting for the Federals
T: Seneca Square Dance
N: AKA "Running from the Federals"
N: See also "Georgia Boys", "Got a Little Home to Go To", "John Hoban's Polka"
L: 1/8
M: C|
K: G
DG \
|  B4  B2AB | d2B2 BAG2 |  B4  d3B  | ABAG E2D2 \
|  B4  B2AB | d2B2 BAG2 | ABAG E2F2 | G3A  G2 :|
|: Bd \
| g4   gage | d2B2 BAG2 |  g4  gfga | be2f e3f \
| gaba g2ge | dged BAG2 | ABAG E2F2 | G3A  G2 :|
%%sep 2 1 500
